polaris-icons/icons/new-icons/ProfileMajor.svg

<svg width="20" height="20" viewBox="0 0 20 20" fill="none" xmlns="http://www.w3.org/2000/svg">
<path fill-rule="evenodd" clip-rule="evenodd" d="M7 8.25C7 6.59315 8.34315 5.25 10 5.25C11.6569 5.25 13 6.59315 13 8.25C13 9.90685 11.6569 11.25 10 11.25C8.34315 11.25 7 9.90685 7 8.25ZM10 6.75C9.17157 6.75 8.5 7.42157 8.5 8.25C8.5 9.07843 9.17157 9.75 10 9.75C10.8284 9.75 11.5 9.07843 11.5 8.25C11.5 7.42157 10.8284 6.75 10 6.75Z" fill="#4A4A4A"/>
<path fill-rule="evenodd" clip-rule="evenodd" d="M15.168 15.4353C13.8228 16.7147 12.0031 17.5 10 17.5C5.85786 17.5 2.5 14.1421 2.5 10C2.5 5.85786 5.85786 2.5 10 2.5C14.1421 2.5 17.5 5.85786 17.5 10C17.5 12.0998 16.6371 13.998 15.2465 15.3595C15.2277 15.3805 15.2074 15.4007 15.1858 15.4199C15.1799 15.4252 15.174 15.4303 15.168 15.4353ZM5.33707 13.7762C4.50096 12.745 4 11.431 4 10C4 6.68629 6.68629 4 10 4C13.3137 4 16 6.68629 16 10C16 11.431 15.499 12.745 14.6629 13.7762C13.386 12.6418 11.7267 12 10 12C8.2733 12 6.61397 12.6418 5.33707 13.7762ZM6.42422 14.8185C7.42283 15.5608 8.66013 16 10 16C11.3399 16 12.5772 15.5608 13.5758 14.8185C12.5834 13.9749 11.3151 13.5 10 13.5C8.68489 13.5 7.41658 13.9749 6.42422 14.8185Z" fill="#4A4A4A"/>
</svg>

<svg viewBox="0 0 20 20" xmlns="http://www.w3.org/2000/svg"><path fill-rule="evenodd" d="M7 8.25a3 3 0 1 1 6 0 3 3 0 0 1-6 0Zm3-1.5a1.5 1.5 0 1 0 0 3 1.5 1.5 0 0 0 0-3Z" fill="#5C5F62"/><path fill-rule="evenodd" d="M15.168 15.435a7.5 7.5 0 1 1-10.336-10.87 7.5 7.5 0 0 1 10.336 10.87Zm-9.83-1.659a6 6 0 1 1 9.326 0 7.03 7.03 0 0 0-4.664-1.776 7.03 7.03 0 0 0-4.663 1.776Zm1.086 1.043a5.973 5.973 0 0 0 3.576 1.181c1.34 0 2.577-.44 3.576-1.181a5.53 5.53 0 0 0-3.576-1.319 5.53 5.53 0 0 0-3.576 1.319Z" fill="#5C5F62"/></svg>
